assets/Man gesturing no/Medium/Flat/man_gesturing_no_flat_medium.svg

<svg width="32" height="32" viewBox="0 0 32 32" fill="none" xmlns="http://www.w3.org/2000/svg">
<path d="M22.61 4.98282L22.08 4.71282C21.7 4.52282 21.36 4.27282 21.06 3.97282L20.02 2.93282C19.24 2.15282 18.39 1.71282 17.04 2.25282C16.36 2.49282 15.63 2.49282 14.95 2.25282C14.03 1.79282 12.93 1.97282 12.2 2.69282L10.93 3.98282C10.63 4.28282 10.28 4.53282 9.89995 4.71282L9.36995 4.98282C8.38995 5.47282 7.84995 6.55282 8.03995 7.63282L8.74995 11.5228C8.81995 11.9128 9.54995 13.2028 9.54995 13.2028L22.44 13.2128C22.44 13.2128 23.15 11.9128 23.22 11.5328L23.93 7.64282C24.14 6.55282 23.6 5.47282 22.61 4.98282Z" fill="#593B39"/>
<path d="M22.5231 10.9498C22.4812 11.5698 22.44 12.2128 22.44 12.2128C22.82 12.1928 23.15 11.9128 23.22 11.5328L23.2633 11.2953C23.7708 11.6705 24.0999 12.2732 24.0999 12.9528C24.0999 14.0905 23.1776 15.0128 22.0399 15.0128C20.9022 15.0128 19.9799 14.0905 19.9799 12.9528C19.9799 11.8151 20.9022 10.8928 22.0399 10.8928C22.2063 10.8928 22.3681 10.9125 22.5231 10.9498Z" fill="#BB806E"/>
<path d="M8.71181 11.3138L8.74995 11.5228C8.81995 11.9128 9.14995 12.1928 9.54995 12.2028C9.54995 12.2028 9.50426 11.5689 9.46468 10.9527C9.62331 10.9136 9.78918 10.8928 9.9599 10.8928C11.0976 10.8928 12.0199 11.8151 12.0199 12.9528C12.0199 14.0905 11.0976 15.0128 9.9599 15.0128C8.8222 15.0128 7.8999 14.0905 7.8999 12.9528C7.8999 12.2843 8.21834 11.6902 8.71181 11.3138Z" fill="#BB806E"/>
<path d="M9.54878 12.2028L9.54998 12.2028C9.54998 12.2028 9.46998 11.0928 9.42998 10.3828C9.40998 10.0328 9.54998 9.67282 9.82998 9.43282L10.06 9.22282C10.38 8.94282 10.56 8.53282 10.56 8.10282V7.01282C10.56 6.70282 10.77 6.43282 11.07 6.36282C11.88 6.16282 13.6 5.81282 15.99 5.81282C18.38 5.81282 20.11 6.15282 20.91 6.36282C21.21 6.44282 21.42 6.71282 21.42 7.01282V8.10282C21.42 8.53282 21.6 8.93282 21.92 9.22282L22.17 9.44282C22.44 9.68282 22.59 10.0428 22.56 10.4128C22.51 11.1228 22.44 12.2128 22.44 12.2128C22.4434 12.2126 22.4469 12.2124 22.4503 12.2122L22.0999 17.2328C21.8799 19.4428 20.1499 21.0128 18.0299 21.0128H13.9699C11.8599 21.0128 10.1199 19.4428 9.89988 17.2328L9.54878 12.2028Z" fill="#C68D7B"/>
<path d="M15.9999 19C16.8283 19 17.4999 18.3284 17.4999 17.5C17.4999 16.6716 16.8283 16 15.9999 16C15.1715 16 14.4999 16.6716 14.4999 17.5C14.4999 18.3284 15.1715 19 15.9999 19Z" fill="#990838"/>
<path d="M15.5299 12.3525L14.8799 14.4625C14.7499 14.8925 15.0699 15.3325 15.5199 15.3325H16.4899C16.9399 15.3325 17.2699 14.8925 17.1299 14.4625L16.4799 12.3525C16.3299 11.8825 15.6699 11.8825 15.5299 12.3525Z" fill="#AB6A55"/>
<path d="M19.02 11.2428C19.84 11.2428 20.54 11.8128 20.73 12.5728C20.78 12.7928 20.62 13.0028 20.39 13.0028H17.58C17.4 13.0028 17.26 12.8428 17.29 12.6628C17.45 11.8528 18.16 11.2428 19.02 11.2428Z" fill="white"/>
<path d="M12.9799 11.2428C12.1599 11.2428 11.4599 11.8128 11.2699 12.5728C11.2199 12.7928 11.3799 13.0028 11.6099 13.0028H14.4199C14.5999 13.0028 14.7399 12.8428 14.7099 12.6628C14.5499 11.8528 13.8399 11.2428 12.9799 11.2428Z" fill="white"/>
<path d="M18.7599 11.5828C19.3799 11.5828 19.8899 12.0828 19.8899 12.7128C19.8899 12.8128 19.8699 12.9128 19.8499 13.0128H17.6799C17.6499 12.9128 17.6399 12.8128 17.6399 12.7128C17.6299 12.0828 18.1299 11.5828 18.7599 11.5828Z" fill="#7D4533"/>
<path d="M13.2399 11.5828C12.6199 11.5828 12.1099 12.0828 12.1099 12.7128C12.1099 12.8128 12.1299 12.9128 12.1499 13.0128H14.3199C14.3499 12.9128 14.3599 12.8128 14.3599 12.7128C14.3699 12.0828 13.8699 11.5828 13.2399 11.5828Z" fill="#7D4533"/>
<path d="M18.11 12.7028C18.11 12.3428 18.4 12.0628 18.75 12.0628C19.11 12.0628 19.39 12.3528 19.39 12.7028C19.39 12.8128 19.36 12.9128 19.32 13.0028H18.18C18.14 12.9128 18.11 12.8128 18.11 12.7028Z" fill="black"/>
<path d="M13.8899 12.7028C13.8899 12.3428 13.5999 12.0628 13.2499 12.0628C12.8899 12.0628 12.6099 12.3528 12.6099 12.7028C12.6099 12.8128 12.6399 12.9128 12.6799 13.0028H13.8199C13.8599 12.9128 13.8899 12.8128 13.8899 12.7028Z" fill="black"/>
<path d="M18.41 12.4628C18.5204 12.4628 18.61 12.3733 18.61 12.2628C18.61 12.1524 18.5204 12.0628 18.41 12.0628C18.2995 12.0628 18.21 12.1524 18.21 12.2628C18.21 12.3733 18.2995 12.4628 18.41 12.4628Z" fill="white"/>
<path d="M12.8599 12.4628C12.9704 12.4628 13.0599 12.3733 13.0599 12.2628C13.0599 12.1524 12.9704 12.0628 12.8599 12.0628C12.7495 12.0628 12.6599 12.1524 12.6599 12.2628C12.6599 12.3733 12.7495 12.4628 12.8599 12.4628Z" fill="white"/>
<path d="M14.4623 9.41684C14.5484 9.79372 14.3128 10.1691 13.9359 10.2552C13.4146 10.3744 12.8926 10.4987 12.5003 10.5933C12.3043 10.6406 12.1411 10.6804 12.0269 10.7084L11.8945 10.7409L11.8488 10.7521C11.4736 10.8451 11.0933 10.6163 11.0004 10.2411C10.9075 9.86581 11.1364 9.48626 11.5116 9.39334L11.5596 9.3815L11.6939 9.34854C11.8094 9.32025 11.9742 9.28006 12.172 9.23235C12.5672 9.13698 13.0952 9.01127 13.6239 8.89042C14.0008 8.80427 14.3762 9.03996 14.4623 9.41684Z" fill="#593B39"/>
<path d="M17.5298 9.45563C17.5945 9.07449 17.9559 8.81798 18.3371 8.8827C18.6332 8.93298 19.1856 9.06519 19.6371 9.17714C19.8688 9.23458 20.0834 9.28912 20.2401 9.32927L20.4269 9.37739L20.4966 9.3955C20.8707 9.49319 21.0949 9.87564 20.9972 10.2497C20.8995 10.6237 20.5171 10.8478 20.143 10.7501L20.0759 10.7327L19.8925 10.6854C19.7382 10.6459 19.5273 10.5923 19.3002 10.536C18.8342 10.4205 18.3366 10.3027 18.1027 10.2629C17.7216 10.1982 17.465 9.83677 17.5298 9.45563Z" fill="#593B39"/>
<path d="M25.5 30.0128H6.5C5.67 30.0128 5 29.3428 5 28.5128V24.1828C5 21.8828 6.87 20.0128 9.17 20.0128H22.83C25.13 20.0128 27 21.8828 27 24.1828V28.5128C27 29.3428 26.33 30.0128 25.5 30.0128Z" fill="#007ACF"/>
<path d="M6.81006 20.57L9.08996 21.63L11.2 17.11L8.97 16.06L6.81006 20.57Z" fill="#00A6ED"/>
<path d="M11.5598 16.0984L26.9669 23.2758C28.728 24.1025 29.4928 26.1993 28.6676 27.9634C27.8424 29.7275 25.7492 30.4936 23.9881 29.667L8.58104 22.4795C8.07787 22.2476 7.85648 21.6428 8.098 21.1387L10.2214 16.5722C10.4528 16.0782 11.0566 15.8564 11.5598 16.0984Z" fill="#0092E7"/>
<path d="M25.19 20.57L22.9099 21.63L20.7999 17.11L23.06 16.04L25.19 20.57Z" fill="#3BC6F6"/>
<path d="M20.4402 16.0985L5.03313 23.271C3.27203 24.0982 2.50721 26.1965 3.33241 27.9619C4.15761 29.7273 6.2508 30.494 8.01189 29.6668L23.419 22.4841C23.9221 22.2521 24.1435 21.6468 23.902 21.1424L21.7786 16.5726C21.5472 16.0783 20.9434 15.8563 20.4402 16.0985Z" fill="#00A6ED"/>
<path d="M25.83 20.23L28.9 18.44C29.16 18.29 29.32 18.01 29.32 17.7C29.32 17.14 28.79 16.73 28.25 16.87L26.05 17.44L25.83 20.23Z" fill="#BB806E"/>
<path d="M6.17004 20.23L3.10004 18.43C2.83004 18.28 2.67004 18 2.67004 17.7C2.67004 17.14 3.20004 16.73 3.74004 16.87L5.94004 17.44L6.17004 20.23Z" fill="#BB806E"/>
<path d="M23 16.07L28.62 13.01C29.24 12.67 30 13.12 30 13.83C30 14.1 29.88 14.36 29.67 14.54L28.16 15.84C27.86 16.14 27.65 16.52 27.57 16.94L27.28 18.33C27.11 19.15 26.58 19.84 25.84 20.23L25.12 20.61L23 16.07Z" fill="#C68D7B"/>
<path d="M9 16.07L3.38 13.01C2.76 12.67 2 13.12 2 13.83C2 14.1 2.12 14.36 2.33 14.54L3.84 15.84C4.14 16.14 4.35 16.52 4.43 16.94L4.72 18.33C4.89 19.15 5.42 19.84 6.16 20.23L6.88 20.61L9 16.07Z" fill="#C68D7B"/>
</svg>

<svg xmlns="http://www.w3.org/2000/svg" width="32" height="32" fill="none"><path fill="#593B39" d="m22.61 4.983-.53-.27c-.38-.19-.72-.44-1.02-.74l-1.04-1.04c-.78-.78-1.63-1.22-2.98-.68-.68.24-1.41.24-2.09 0-.92-.46-2.02-.28-2.75.44l-1.27 1.29c-.3.3-.65.55-1.03.73l-.53.27c-.98.49-1.52 1.57-1.33 2.65l.71 3.89c.07.39.8 1.68.8 1.68l12.89.01s.71-1.3.78-1.68l.71-3.89c.21-1.09-.33-2.17-1.32-2.66Z"/><path fill="#BB806E" d="M22.523 10.95c-.042.62-.083 1.263-.083 1.263.38-.02.71-.3.78-.68l.043-.238a2.06 2.06 0 1 1-.74-.345ZM8.712 11.314l.038.209c.07.39.4.67.8.68 0 0-.046-.634-.085-1.25a2.06 2.06 0 1 1-.753.361Z"/><path fill="#C68D7B" d="M9.549 12.203h.001s-.08-1.11-.12-1.82c-.02-.35.12-.71.4-.95l.23-.21c.32-.28.5-.69.5-1.12v-1.09c0-.31.21-.58.51-.65.81-.2 2.53-.55 4.92-.55s4.12.34 4.92.55c.3.08.51.35.51.65v1.09c0 .43.18.83.5 1.12l.25.22c.27.24.42.6.39.97-.05.71-.12 1.8-.12 1.8h.01l-.35 5.02c-.22 2.21-1.95 3.78-4.07 3.78h-4.06c-2.11 0-3.85-1.57-4.07-3.78l-.351-5.03Z"/><path fill="#990838" d="M16 19a1.5 1.5 0 1 0 0-3 1.5 1.5 0 0 0 0 3Z"/><path fill="#AB6A55" d="m15.53 12.352-.65 2.11c-.13.43.19.87.64.87h.97c.45 0 .78-.44.64-.87l-.65-2.11c-.15-.47-.81-.47-.95 0Z"/><path fill="#fff" d="M19.02 11.243c.82 0 1.52.57 1.71 1.33.05.22-.11.43-.34.43h-2.81c-.18 0-.32-.16-.29-.34.16-.81.87-1.42 1.73-1.42ZM12.98 11.243c-.82 0-1.52.57-1.71 1.33-.05.22.11.43.34.43h2.81c.18 0 .32-.16.29-.34a1.76 1.76 0 0 0-1.73-1.42Z"/><path fill="#7D4533" d="M18.76 11.583a1.129 1.129 0 0 1 1.09 1.43h-2.17c-.03-.1-.04-.2-.04-.3-.01-.63.49-1.13 1.12-1.13ZM13.24 11.583a1.129 1.129 0 0 0-1.09 1.43h2.17c.03-.1.04-.2.04-.3.01-.63-.49-1.13-1.12-1.13Z"/><path fill="#000" d="M18.11 12.703c0-.36.29-.64.64-.64.36 0 .64.29.64.64 0 .11-.03.21-.07.3h-1.14a.735.735 0 0 1-.07-.3ZM13.89 12.703c0-.36-.29-.64-.64-.64-.36 0-.64.29-.64.64 0 .11.03.21.07.3h1.14c.04-.09.07-.19.07-.3Z"/><path fill="#fff" d="M18.41 12.463a.2.2 0 1 0 0-.4.2.2 0 0 0 0 .4ZM12.86 12.463a.2.2 0 1 0 0-.4.2.2 0 0 0 0 .4Z"/><path fill="#593B39" d="M14.462 9.417a.7.7 0 0 1-.526.838 128.286 128.286 0 0 0-1.91.453l-.131.033-.046.011a.7.7 0 0 1-.337-1.359l.048-.011.134-.033a140.576 140.576 0 0 1 1.93-.459.7.7 0 0 1 .838.527ZM17.53 9.456a.7.7 0 0 1 .807-.573c.296.05.849.182 1.3.294l.603.152.187.048.07.018a.7.7 0 1 1-.354 1.355l-.067-.017-.184-.048c-.154-.04-.365-.093-.592-.149a22.159 22.159 0 0 0-1.197-.273.7.7 0 0 1-.573-.807Z"/><path fill="#007ACF" d="M25.5 30.013h-19c-.83 0-1.5-.67-1.5-1.5v-4.33c0-2.3 1.87-4.17 4.17-4.17h13.66c2.3 0 4.17 1.87 4.17 4.17v4.33c0 .83-.67 1.5-1.5 1.5Z"/><path fill="#00A6ED" d="m6.81 20.57 2.28 1.06 2.11-4.52-2.23-1.05-2.16 4.51Z"/><path fill="#0092E7" d="m11.56 16.098 15.407 7.178a3.529 3.529 0 0 1 1.7 4.687 3.518 3.518 0 0 1-4.679 1.704L8.581 22.479a1.003 1.003 0 0 1-.483-1.34l2.123-4.567a1.004 1.004 0 0 1 1.339-.474Z"/><path fill="#3BC6F6" d="m25.19 20.57-2.28 1.06-2.11-4.52 2.26-1.07 2.13 4.53Z"/><path fill="#00A6ED" d="M20.44 16.099 5.033 23.27a3.532 3.532 0 0 0-1.7 4.69 3.516 3.516 0 0 0 4.679 1.706l15.407-7.183c.503-.232.724-.837.483-1.342l-2.123-4.57a1.003 1.003 0 0 0-1.339-.473Z"/><path fill="#BB806E" d="m25.83 20.23 3.07-1.79c.26-.15.42-.43.42-.74 0-.56-.53-.97-1.07-.83l-2.2.57-.22 2.79ZM6.17 20.23l-3.07-1.8a.833.833 0 0 1-.43-.73c0-.56.53-.97 1.07-.83l2.2.57.23 2.79Z"/><path fill="#C68D7B" d="m23 16.07 5.62-3.06a.933.933 0 0 1 1.05 1.53l-1.51 1.3c-.3.3-.51.68-.59 1.1l-.29 1.39c-.17.82-.7 1.51-1.44 1.9l-.72.38L23 16.07ZM9 16.07l-5.62-3.06a.933.933 0 0 0-1.05 1.53l1.51 1.3c.3.3.51.68.59 1.1l.29 1.39c.17.82.7 1.51 1.44 1.9l.72.38L9 16.07Z"/></svg>
